!!!OTL: Merry May the Maid Be 
!!!id: HA050
**kern
*clefF4
*k[f#]
*D:
*M2/2
{8.f#
16g
=1
4.a
8b
4a
4g
=2
4f#
4e
4d}
{4e
=3
4.f#
8g
4a
4b
=4
2cc
4g}
{8.cc
16b
=5
4.a
8b
4a
4g
=6
4.f#
8e
4d}
{4f#
=7
4a
4ff#
4e
4cc#
=8
2dd
4a}
{4a
=9
4.dd
8ff#
4ee
4dd
=10
4cc#
4dd
4.a}
{8a
=11
4f#
4f#
4.cc
8a
=12
2g
4e}
8r
{8cc
=13
4.a
8b
4a
4g
=14
4f#
4e
4.d}
{8f#
=15
4a
4ff#
4.ee
8ff#
=16
2dd
4a}
==
*-
!!!minrhy: 16
!!!meter: 2/2 
!!!cut: Merry May the Maid Be 
!!!key: HA050  16  d 2/2 
!!!fog: a--b--av-c--d--a--av'f--
!! Haydn: Volksliedbearbeitungen, Bd1
